images/wilderness_hut.svg

<?xml version="1.0" encoding="UTF-8" standalone="no"?>
<svg xmlns:dc="http://purl.org/dc/elements/1.1/" xmlns:cc="http://creativecommons.org/ns#" xmlns:rdf="http://www.w3.org/1999/02/22-rdf-syntax-ns#" xmlns:svg="http://www.w3.org/2000/svg" xmlns="http://www.w3.org/2000/svg" xmlns:sodipodi="http://sodipodi.sourceforge.net/DTD/sodipodi-0.dtd" xmlns:inkscape="http://www.inkscape.org/namespaces/inkscape" version="1.1" width="14" height="14" viewBox="0 0 14 14" id="svg2" sodipodi:docname="wilderness_hut.svg" inkscape:version="0.92.4 (5da689c313, 2019-01-14)">
  <sodipodi:namedview pagecolor="#ffffff" bordercolor="#666666" borderopacity="1" objecttolerance="10" gridtolerance="10" guidetolerance="10" inkscape:pageopacity="0" inkscape:pageshadow="2" inkscape:window-width="1881" inkscape:window-height="1051" id="namedview8863" showgrid="true" inkscape:pagecheckerboard="true" inkscape:zoom="16.857143" inkscape:cx="7" inkscape:cy="7" inkscape:window-x="0" inkscape:window-y="0" inkscape:window-maximized="1" inkscape:current-layer="svg2">
    <inkscape:grid type="xygrid" id="grid9408" units="px" spacingx="1" spacingy="1" />
  </sodipodi:namedview>
  <metadata id="metadata8">
    <rdf:RDF>
      <cc:Work rdf:about="">
        <dc:format>image/svg+xml</dc:format>
        <dc:type rdf:resource="http://purl.org/dc/dcmitype/StillImage" />
        <dc:title></dc:title>
      </cc:Work>
    </rdf:RDF>
  </metadata>
  <defs id="defs6" />
  <path style="fill:none;fill-opacity:1;stroke:#fcfcfc;stroke-opacity:1;opacity:0.5;stroke-width:3;stroke-miterlimit:4;stroke-dasharray:none;stroke-linejoin:round;stroke-linecap:round" d="M 8,0 8,2 7,1.5 0,5 0,7 1.5,6.3496094 1.5,14 3,14 3,5.6992188 7,4 8,4.4257812 8,9 4.5,9 c 0.025314,1.65157 -0.034277,3.38952 0,5 l 5,0 C 9.518206,11.046736 9.50603,8.0503867 9.5,5.0625 L 11,5.6992188 11,14 12.5,14 12.5,6.3496094 14,7 14,5 9.5,2.75 C 9.4984477,1.8314022 9.5,0.9158261 9.5,0 L 8,0 Z M 7,11 c 0,0 1,0 1,1 l 0,1 -2,0 0,-1 c 0,-1 1,-1 1,-1 z" id="path9410" />
  <rect width="14" height="14" x="0" y="0" id="canvas" style="fill:none;stroke:none;visibility:hidden" />
  <path id="wilderness-hut" d="M 8,0 8,2 7,1.5 0,5 0,7 1.5,6.3496094 1.5,14 3,14 3,5.6992188 7,4 8,4.4257812 8,9 4.5,9 c 0.025314,1.65157 -0.034277,3.38952 0,5 l 5,0 C 9.518206,11.046736 9.50603,8.0503867 9.5,5.0625 L 11,5.6992188 11,14 12.5,14 12.5,6.3496094 14,7 14,5 9.5,2.75 C 9.4984477,1.8314022 9.5,0.9158261 9.5,0 L 8,0 Z M 7,11 c 0,0 1,0 1,1 l 0,1 -2,0 0,-1 c 0,-1 1,-1 1,-1 z" style="fill:#000000;fill-opacity:1;stroke:none" />
</svg>

<svg xmlns="http://www.w3.org/2000/svg" width="14" height="14">
    <path d="M8 0v2l-1-.5L0 5v2l1.5-.65V14H3V5.7L7 4l1 .426V9H4.5c.025 1.652-.034 3.39 0 5h5c.018-2.953.006-5.95 0-8.938L11 5.7V14h1.5V6.35L14 7V5L9.5 2.75c-.002-.919 0-1.834 0-2.75H8zM7 11s1 0 1 1v1H6v-1c0-1 1-1 1-1z" fill="none" stroke="#fcfcfc" opacity=".5" stroke-width="3" stroke-linejoin="round" stroke-linecap="round"/>
    <path d="M8 0v2l-1-.5L0 5v2l1.5-.65V14H3V5.7L7 4l1 .426V9H4.5c.025 1.652-.034 3.39 0 5h5c.018-2.953.006-5.95 0-8.938L11 5.7V14h1.5V6.35L14 7V5L9.5 2.75c-.002-.919 0-1.834 0-2.75H8zM7 11s1 0 1 1v1H6v-1c0-1 1-1 1-1z"/>
</svg>
